icons/mic-off.svg

<svg width="24" height="24" viewBox="0 0 24 24" fill="none" xmlns="http://www.w3.org/2000/svg">
<g clip-path="url(#clip0)">
<path fill-rule="evenodd" clip-rule="evenodd" d="M0.292893 0.292893C0.683417 -0.0976311 1.31658 -0.0976311 1.70711 0.292893L23.7071 22.2929C24.0976 22.6834 24.0976 23.3166 23.7071 23.7071C23.3166 24.0976 22.6834 24.0976 22.2929 23.7071L16.4246 17.8389C15.3924 18.4226 14.2333 18.8085 13 18.945V22C13 22.5523 12.5523 23 12 23C11.4477 23 11 22.5523 11 22V18.9451C6.50005 18.4476 3 14.6326 3 10C3 9.44771 3.44772 9 4 9C4.55228 9 5 9.44771 5 10C5 13.866 8.13401 17 12 17C13.0512 17 14.0469 16.7689 14.9404 16.3546L13.3898 14.804C12.9479 14.9317 12.4813 15 12 15C9.23858 15 7 12.7614 7 10V8.41421L0.292893 1.70711C-0.0976311 1.31658 -0.0976311 0.683417 0.292893 0.292893ZM11.5527 12.9669C10.2539 12.7727 9.22729 11.7461 9.03313 10.4473L11.5527 12.9669ZM12 3C10.9809 3 10.0801 3.50725 9.53632 4.28757C9.22058 4.7407 8.59729 4.85207 8.14416 4.53632C7.69103 4.22058 7.57966 3.59729 7.8954 3.14416C8.79708 1.85015 10.2992 1 12 1C14.7614 1 17 3.23858 17 6V10C17 10.3848 16.9563 10.7607 16.8733 11.1224C16.7497 11.6607 16.2132 11.9969 15.6749 11.8733C15.1366 11.7497 14.8004 11.2132 14.924 10.6749C14.9736 10.4589 15 10.2332 15 10V6C15 4.34315 13.6569 3 12 3ZM20 9C20.5523 9 21 9.44771 21 10C21 11.6169 20.5727 13.1371 19.8242 14.4505C19.5507 14.9303 18.9401 15.0976 18.4602 14.8242C17.9804 14.5507 17.8131 13.9401 18.0866 13.4602C18.6677 12.4406 19 11.2606 19 10C19 9.44771 19.4477 9 20 9Z" fill="black"/>
</g>
<defs>
<clipPath id="clip0">
<rect width="24" height="24" fill="white"/>
</clipPath>
</defs>
</svg>

<svg
  width="24"
  height="24"
  viewBox="0 0 24 24"
  xmlns="http://www.w3.org/2000/svg"
>
  <g clip-path="url(#a)">
    <path
      fill-rule="evenodd"
      clip-rule="evenodd"
      d="M.293.293a1 1 0 0 1 1.414 0l22 22a1 1 0 0 1-1.414 1.414l-5.868-5.868A8.948 8.948 0 0 1 13 18.945V22a1 1 0 1 1-2 0v-3.055C6.5 18.448 3 14.633 3 10a1 1 0 1 1 2 0 7 7 0 0 0 9.94 6.355l-1.55-1.551A5 5 0 0 1 7 10V8.414L.293 1.707a1 1 0 0 1 0-1.414zm11.26 12.674a3.002 3.002 0 0 1-2.52-2.52l2.52 2.52zM12 3c-1.02 0-1.92.507-2.464 1.288a1 1 0 1 1-1.64-1.144A5 5 0 0 1 17 6v4c-.001.385-.045.76-.128 1.122a1 1 0 1 1-1.949-.447c.05-.216.076-.442.076-.675V6a3 3 0 0 0-3-3zm8 6a1 1 0 0 1 1 1 8.964 8.964 0 0 1-1.176 4.45 1 1 0 0 1-1.737-.99c.58-1.02.913-2.2.913-3.46a1 1 0 0 1 1-1z"
    />
  </g>
  <defs>
    <clipPath id="a">
      <rect width="24" height="24" />
    </clipPath>
  </defs>
</svg>
